;FLAVOR:Marlin
;TIME:2415
;Filament used: 4.35758m
;Layer height: 0.3
;MINX:17.701
;MINY:10.149
;MINZ:0.3
;MAXX:182.3
;MAXY:189.85
;MAXZ:3.9
;Generated with Cura_SteamEngine 4.6.0
M82 ;absolute extrusion mode
G21
G90
M82
M107 T0
M140 S60
M104 S220 T0
M190 S60
M109 S220 T0
G28
G92 E0
G1 Z15.0 F120
G0 E3 F200
G92 E0
G92 E0
G92 E0
G1 F1500 E-6.5
;LAYER_COUNT:13
;LAYER:0
M107
;MESH:Model Sousse V1.1.STL
G0 F3600 X30.069 Y110.721 Z0.3
;TYPE:WALL-INNER
G1 F1500 E0
G1 F2550 X30.201 Y111.06 E0.01815
G1 X30.036 Y110.735 E0.01897
G1 X29.046 Y108.09 E0.15987
G1 X30.069 Y110.721 E0.16598
G0 F3600 X33.864 Y118.229
G1 F2550 X34.011 Y118.511 E0.18185
G1 X33.836 Y118.244 E0.18251
G1 X32.575 Y115.752 E0.32185
G1 X33.864 Y118.229 E0.32723
G0 F3600 X38.463 Y125.275
G1 F2550 X38.62 Y125.51 E0.34133
G1 X38.44 Y125.291 E0.34184
G1 X36.944 Y123.001 E0.47831
G1 X38.463 Y125.275 E0.48306
G0 F3600 X43.809 Y131.771
G1 F2550 X43.971 Y131.964 E0.49563
G1 X43.79 Y131.788 E0.49605
G1 X42.034 Y129.655 E0.63389
G1 X43.809 Y131.771 E0.63815
G0 F3600 X49.831 Y137.636
G1 F2550 X49.976 Y137.775 E0.64817
G1 X49.818 Y137.651 E0.64838
G1 X47.945 Y135.83 E0.77871
G1 X49.831 Y137.636 E0.78178
G0 F3600 X56.484 Y142.821
G1 F2550 X56.604 Y142.913 E0.78932
G1 X56.475 Y142.833 E0.78947
G1 X54.664 Y141.424 E0.90394
G1 X56.484 Y142.821 E0.90609
G0 F3600 X63.639 Y147.223
G1 F2550 X63.732 Y147.279 E0.91151
G1 X63.634 Y147.233 E0.91158
G1 X61.888 Y146.16 E1.01382
G1 X63.639 Y147.223 E1.0152
G0 F3600 X71.258 Y150.824
G1 F2550 X71.319 Y150.853 E1.01857
G1 X71.256 Y150.831
G1 X69.868 Y150.176 E1.09514
G1 X71.258 Y150.824 E1.09576
G0 F3600 X79.211 Y153.558
G1 F2550 X79.232 Y153.565 E1.09687
G1 X79.211 Y153.561
G1 X78.561 Y153.337 E1.13117
G1 X79.211 Y153.558 E1.13125
G0 F3600 X87.607 Y155.076
G0 X95.854 Y155.978
G0 X104.146 Y155.978
G0 X112.704 Y155.006
G0 X120.789 Y153.559
G1 F2550 X121.524 Y153.309 E1.16998
G1 X120.79 Y153.561 E1.17008
G1 X120.766 Y153.566 E1.1713
G1 X120.789 Y153.559 E1.1713
G0 F3600 X128.744 Y150.831
G1 F2550 X128.681 Y150.853 E1.17463
G1 X128.741 Y150.825 E1.17466
G1 X130.132 Y150.176 E1.25123
G1 X128.744 Y150.831 E1.25178
G0 F3600 X136.36 Y147.224
G1 F2550 X138.132 Y146.148 E1.35521
G1 X136.366 Y147.233 E1.35648
G1 X136.268 Y147.279 E1.36188
G1 X136.36 Y147.224 E1.36192
G0 F3600 X143.516 Y142.821
G1 F2550 X145.411 Y141.366 E1.48112
G1 X143.526 Y142.833 E1.48333
G1 X143.392 Y142.916 E1.49119
G1 X143.516 Y142.821 E1.49131
G0 F3600 X150.168 Y137.637
G1 F2550 X152.032 Y135.852 E1.62007
G1 X150.182 Y137.651 E1.62311
G1 X150.027 Y137.772 E1.63292
G1 X150.168 Y137.637 E1.63312
G0 F3600 X156.21 Y131.788
G1 F2550 X156.029 Y131.964 E1.64572
G1 X156.19 Y131.772 E1.64606
G1 X157.966 Y129.655 E1.78392
G1 X156.21 Y131.788 E1.78818
G0 F3600 X161.536 Y125.276
G1 F2550 X163.074 Y122.974 E1.9263
G1 X161.56 Y125.291 E1.93109
G1 X161.378 Y125.512 E1.94537
G1 X161.536 Y125.276 E1.94584
G0 F3600 X166.164 Y118.244
G1 F2550 X165.989 Y118.512 E1.96181
G1 X166.135 Y118.23 E1.9624
G1 X167.433 Y115.736 E2.10267
G1 X166.164 Y118.244 E2.10823
G0 F3600 X169.964 Y110.735
G1 F2550 X169.794 Y111.071 E2.12701
G1 X169.929 Y110.722 E2.12785
G1 X170.992 Y107.989 E2.27415
G1 X169.964 Y110.735 E2.28092
G0 F3600 X172.519 Y103.515
G0 X174.618 Y95.721
G0 X175.88 Y87.508
G0 X176.221 Y78.864
G0 X175.697 Y70.904
G0 X174.249 Y62.711
G0 X171.794 Y54.423
G0 X168.578 Y46.757
G0 X164.733 Y39.758
G0 X159.746 Y32.702
G0 X155.977 Y28.431
G0 X153.848 Y20.459
G1 F2550 X153.85 Y20.472 E2.28158
G1 X153.931 Y20.853 E2.30101
G1 X153.931 Y20.857 E2.30121
G1 X153.937 Y20.882 E2.30249
G1 X154.18 Y22.042 E2.36162
G1 X154.621 Y23.173 E2.42218
G1 X154.668 Y23.253 E2.42681
G1 X155.245 Y24.221 E2.48304
G1 X156.006 Y25.119 E2.54176
G1 X161.193 Y30.836 E2.92688
G1 X165.781 Y36.998 E3.31016
G1 X169.747 Y43.568 E3.69303
G1 X173.06 Y50.498 E4.07625
G1 X175.688 Y57.719 E4.45962
G1 X177.603 Y65.155 E4.84271
G1 X178.791 Y72.747 E5.22609
G1 X179.901 Y89.536 E6.06552
G1 X181.356 Y98.098 E6.4988
G1 X181.898 Y106.713 E6.92946
G1 X181.532 Y115.336 E7.36005
G1 X180.259 Y123.874 E7.79072
G1 X178.097 Y132.224 E8.22104
G1 X175.073 Y140.292 E8.6509
G1 X171.203 Y148.022 E9.08218
G1 X166.552 Y155.286 E9.51251
G1 X161.161 Y162.021 E9.9429
G1 X155.098 Y168.147 E10.37291
G1 X148.407 Y173.613 E10.80395
G1 X141.191 Y178.337 E11.23424
G1 X133.515 Y182.278 E11.66473
G1 X125.462 Y185.392 E12.09548
G1 X117.144 Y187.635 E12.52529
G1 X108.612 Y188.996 E12.95634
G1 X100 Y189.45 E13.38659
G1 X91.388 Y188.996 E13.81684
G1 X82.856 Y187.635 E14.24788
G1 X74.538 Y185.392 E14.67769
G1 X66.485 Y182.278 E15.10845
G1 X58.809 Y178.337 E15.53893
G1 X51.593 Y173.613 E15.96922
G1 X44.902 Y168.147 E16.40027
G1 X38.839 Y162.021 E16.83027
G1 X33.448 Y155.286 E17.26067
G1 X28.797 Y148.022 E17.69099
G1 X24.929 Y140.296 E18.12205
G1 X21.903 Y132.224 E18.55213
G1 X19.741 Y123.874 E18.98245
G1 X18.469 Y115.336 E19.41312
G1 X18.102 Y106.712 E19.84376
G1 X18.644 Y98.093 E20.27461
G1 X20.099 Y89.536 E20.70765
G1 X21.209 Y72.747 E21.54709
G1 X22.397 Y65.155 E21.93046
G1 X24.312 Y57.719 E22.31355
G1 X26.94 Y50.498 E22.69692
G1 X30.253 Y43.568 E23.08014
G1 X34.219 Y36.999 E23.46297
G1 X38.807 Y30.836 E23.84629
G1 X44.021 Y25.087 E24.2335
G1 X44.757 Y24.219 E24.29027
G1 X44.804 Y24.138 E24.29495
G1 X45.379 Y23.174 E24.35095
G1 X45.411 Y23.09 E24.35543
G1 X45.818 Y22.047 E24.41129
G1 X45.839 Y21.957 E24.4159
G1 X46.069 Y20.853 E24.47216
G1 X46.074 Y20.763 E24.47666
G1 X46.12 Y19.641 E24.53268
G1 X46.11 Y19.549 E24.5373
G1 X45.969 Y18.429 E24.59362
G1 X45.624 Y17.267 E24.65409
G1 X45.585 Y17.184 E24.65866
G1 X45.089 Y16.171 E24.71494
G1 X44.381 Y15.181 E24.77566
G1 X43.519 Y14.319 E24.83648
G1 X43.444 Y14.266 E24.84106
G1 X42.53 Y13.613 E24.8971
G1 X42.445 Y13.572 E24.90181
G1 X41.439 Y13.079 E24.9577
G1 X40.271 Y12.731 E25.0185
G1 X40.083 Y12.709 E25.02795
G1 X39.064 Y12.581 E25.07918
G1 X38.243 Y12.615 E25.12018
G1 X38.243 Y12.549 E25.12347
G1 X38.23 Y12.551
G1 X37.849 Y12.632 E25.14212
G1 X37.845 Y12.632 E25.14232
G1 X37.808 Y12.64 E25.14421
G1 X36.659 Y12.882 E25.20279
G1 X35.529 Y13.323 E25.26331
G1 X35.449 Y13.37 E25.26794
G1 X34.481 Y13.947 E25.32416
G1 X33.427 Y14.84 E25.39308
G1 X33.283 Y14.925 E25.40142
G1 X33.121 Y14.989 E25.41011
G1 X32.964 Y15.022 E25.41811
G1 X32.786 Y15.029 E25.427
G1 X32.631 Y15.01 E25.43479
G1 X32.462 Y14.959 E25.4436
G1 X32.316 Y14.888 E25.4517
G1 X32.174 Y14.787 E25.46039
G1 X32.06 Y14.673 E25.46844
G1 X31.961 Y14.535 E25.47691
G1 X31.888 Y14.385 E25.48523
G1 X31.839 Y14.221 E25.49377
G1 X31.819 Y14.06 E25.50187
G1 X31.826 Y13.885 E25.5106
G1 X31.86 Y13.721 E25.51896
G1 X31.919 Y13.571 E25.527
G1 X32.006 Y13.425 E25.53548
G1 X32.116 Y13.296 E25.54394
G1 X33.3 Y12.293 E25.62135
G1 X34.637 Y11.496 E25.69901
G1 X36.081 Y10.933 E25.77633
G1 X37.593 Y10.616 E25.85341
G1 X39.156 Y10.551 E25.93145
G1 X40.69 Y10.743 E26.00858
G1 X42.176 Y11.185 E26.08593
G1 X43.571 Y11.866 E26.16338
G1 X44.835 Y12.769 E26.24088
G1 X45.93 Y13.864 E26.31813
G1 X46.834 Y15.13 E26.39574
G1 X47.516 Y16.524 E26.47317
G1 X47.96 Y18.015 E26.55078
G1 X48.151 Y19.552 E26.62805
G1 X48.086 Y21.107 E26.7057
G1 X47.77 Y22.618 E26.78272
G1 X47.205 Y24.066 E26.86026
G1 X46.409 Y25.403 E26.93789
G1 X45.417 Y26.574 E27.01446
G1 X45.176 Y26.85 E27.03274
G1 X39.907 Y32.855 E27.43131
G1 X35.127 Y39.678 E27.84693
G1 X31.117 Y46.981 E28.26259
G1 X27.926 Y54.677 E28.67824
G1 X25.593 Y62.676 E29.09394
G1 X24.144 Y70.881 E29.50962
G1 X23.597 Y79.194 E29.92526
G1 X23.611 Y79.536 E29.94233
G1 X23.959 Y87.518 E30.34094
G1 X25.225 Y95.753 E30.75661
G1 X26.806 Y101.659 E31.06164
G1 X26.89 Y101.973 E31.07785
G1 X27.007 Y102.408 E31.10033
G1 X27.195 Y103.109 E31.13653
G1 X27.225 Y103.221 E31.14232
G1 X27.184 Y103.113 E31.14237
G1 X26.915 Y102.433 E31.14738
G1 X26.66 Y102.035 E31.15766
G1 X26.439 Y101.796 E31.17071
G1 X26.353 Y101.704 E31.17699
G1 X25.993 Y101.429 E31.1996
G1 X25.593 Y101.221 E31.22209
G1 X25.16 Y101.086 E31.24472
G1 X24.71 Y101.028 E31.26735
G1 X24.259 Y101.049 E31.28988
G1 X23.818 Y101.147 E31.31242
G1 X23.399 Y101.32 E31.33503
G1 X23.019 Y101.563 E31.35753
G1 X22.684 Y101.869 E31.38017
G1 X22.409 Y102.229 E31.40277
G1 X22.2 Y102.629 E31.42529
G1 X22.063 Y103.059 E31.4478
G1 X22.005 Y103.479 E31.46896
G1 X22.003 Y103.764 E31.48317
G1 X21.941 Y110.101 E31.79934
G1 X22.436 Y116.691 E32.12905
G1 X23.488 Y123.215 E32.45873
G1 X23.553 Y123.478 E32.47225
G1 X25.094 Y129.662 E32.79021
G1 X25.296 Y130.088 E32.81373
G1 X25.63 Y130.435 E32.83776
G1 X25.866 Y130.588 E32.85179
G1 X26.121 Y130.7 E32.86568
G1 X26.562 Y130.779 E32.88804
G1 X27.403 Y130.736 E32.93005
G1 X27.937 Y130.799 E32.95687
G1 X28.478 Y130.958 E32.98501
G1 X28.974 Y131.202 E33.01258
G1 X29.426 Y131.529 E33.04042
G1 X29.816 Y131.927 E33.06822
G1 X30.137 Y132.394 E33.09649
G1 X30.375 Y132.908 E33.12475
G1 X30.479 Y133.154 E33.13807
G1 X33.03 Y139.264 E33.4684
G1 X33.165 Y139.516 E33.48267
G1 X36.274 Y145.36 E33.81292
G1 X36.43 Y145.598 E33.82711
G1 X40.071 Y151.129 E34.15748
G1 X44.363 Y156.487 E34.49998
G1 X44.476 Y156.638 E34.50939
G1 X44.543 Y156.766 E34.5166
G1 X44.589 Y156.913 E34.52428
G1 X44.611 Y157.06 E34.5317
G1 X44.607 Y157.207 E34.53903
G1 X44.58 Y157.35 E34.54629
G1 X44.525 Y157.499 E34.55422
G1 X44.458 Y157.617 E34.56099
G1 X44.359 Y157.738 E34.56879
G1 X44.251 Y157.834 E34.576
G1 X44.125 Y157.913 E34.58342
G1 X43.987 Y157.97 E34.59086
G1 X43.841 Y158.003 E34.59833
G1 X43.695 Y158.012 E34.60563
G1 X43.545 Y157.996 E34.61316
G1 X43.409 Y157.958 E34.6202
G1 X43.268 Y157.893 E34.62795
G1 X43.146 Y157.809 E34.63534
G1 X43.033 Y157.7 E34.64317
G1 X38.618 Y152.19 E34.99543
G1 X34.73 Y146.283 E35.34823
G1 X31.404 Y140.032 E35.7015
G1 X28.447 Y132.951 E36.08433
G1 X26.573 Y133.639 E36.18393
G1 X26.376 Y133.711 E36.19439
G1 X26.458 Y133.904 E36.20105
G1 X29.92 Y142.02 E36.64126
G1 X30.091 Y142.323 E36.65862
G1 X34.048 Y149.379 E37.06222
G1 X34.248 Y149.661 E37.07947
G1 X38.945 Y156.25 E37.48317
G1 X44.557 Y162.553 E37.90421
G1 X50.815 Y168.214 E38.32521
G1 X57.647 Y173.166 E38.74618
G1 X64.974 Y177.353 E39.1672
G1 X72.709 Y180.724 E39.58816
G1 X80.763 Y183.241 E40.00914
G1 X89.042 Y184.875 E40.43015
G1 X97.455 Y185.606 E40.85145
G1 X97.711 Y185.594 E40.86424
G1 X97.988 Y185.534 E40.87838
G1 X98.42 Y185.324 E40.90234
G1 X98.772 Y184.984 E40.92676
G1 X98.936 Y184.718 E40.94235
G1 X99.079 Y184.285 E40.9651
G1 X99.1 Y184.031 E40.97782
G1 X99.1 Y180.664 E41.1458
G1 X100.9 Y180.664 E41.2356
G1 X100.9 Y183.87 E41.39555
G1 X100.918 Y184.281 E41.41607
G1 X101.067 Y184.73 E41.43967
G1 X101.236 Y184.993 E41.45527
G1 X101.581 Y185.325 E41.47916
G1 X102.023 Y185.538 E41.50364
G1 X102.305 Y185.595 E41.51799
G1 X102.545 Y185.606 E41.52998
G1 X110.456 Y184.944 E41.92604
G1 X110.776 Y184.885 E41.94227
G1 X118.253 Y183.484 E42.32179
G1 X125.861 Y181.242 E42.71749
G1 X126.163 Y181.118 E42.73378
G1 X133.202 Y178.238 E43.11322
G1 X140.201 Y174.507 E43.50891
G1 X140.471 Y174.325 E43.52516
G1 X146.785 Y170.084 E43.90463
G1 X152.887 Y165.016 E44.30036
G1 X158.443 Y159.355 E44.69609
G1 X158.645 Y159.101 E44.71228
G1 X163.396 Y153.161 E45.09176
G1 X167.696 Y146.496 E45.48748
G1 X171.298 Y139.429 E45.88321
G1 X174.3 Y131.683 E46.29766
G1 X174.373 Y131.494 E46.30777
G1 X174.183 Y131.424 E46.31427
G1 X173.754 Y131.265 E46.3371
G1 X172.026 Y130.636 E46.42884
G1 X168.67 Y138.544 E46.85743
G1 X164.791 Y145.544 E47.2567
G1 X160.2 Y152.1 E47.656
G1 X154.968 Y158.119 E48.05388
G1 X154.844 Y158.228 E48.06212
G1 X154.719 Y158.306 E48.06947
G1 X154.581 Y158.362 E48.0769
G1 X154.438 Y158.395 E48.08422
G1 X154.292 Y158.403 E48.09152
G1 X154.141 Y158.387 E48.09909
G1 X153.995 Y158.347 E48.10664
G1 X153.866 Y158.286 E48.11376
G1 X153.743 Y158.202 E48.12119
G1 X153.631 Y158.093 E48.12899
G1 X153.546 Y157.979 E48.13608
G1 X153.483 Y157.854 E48.14307
G1 X153.434 Y157.701 E48.15108
G1 X153.414 Y157.56 E48.15819
G1 X153.418 Y157.411 E48.16562
G1 X153.446 Y157.263 E48.17314
G1 X153.497 Y157.126 E48.18043
G1 X153.569 Y156.999 E48.18772
G1 X153.875 Y156.638 E48.21133
G1 X158.786 Y150.988 E48.5848
G1 X158.971 Y150.725 E48.60085
G1 X163.265 Y144.592 E48.97436
G1 X167.051 Y137.762 E49.36396
G1 X167.176 Y137.466 E49.37999
G1 X170.064 Y130.662 E49.74876
G1 X170.43 Y130.131 E49.78094
G1 X170.887 Y129.654 E49.81389
G1 X171.417 Y129.252 E49.84708
G1 X172 Y128.94 E49.88007
G1 X172.624 Y128.726 E49.91298
G1 X173.275 Y128.612 E49.94595
G1 X173.937 Y128.602 E49.97898
G1 X174.607 Y128.699 E50.01276
G1 X175.187 Y128.8 E50.04213
G1 X175.374 Y127.935 E50.08628
G1 X177.082 Y120.121 E50.48533
G1 X177.12 Y119.782 E50.50235
G1 X177.983 Y111.831 E50.90135
G1 X177.983 Y111.488 E50.91847
G1 X177.995 Y103.479 E51.31804
G1 X177.929 Y103.029 E51.34073
G1 X177.787 Y102.599 E51.36332
G1 X177.573 Y102.2 E51.38591
G1 X177.292 Y101.844 E51.40854
G1 X176.954 Y101.542 E51.43115
G1 X176.57 Y101.305 E51.45366
G1 X176.15 Y101.137 E51.47623
G1 X175.707 Y101.044 E51.49881
G1 X175.255 Y101.03 E51.52138
G1 X174.809 Y101.093 E51.54385
G1 X174.376 Y101.234 E51.56657
G1 X173.977 Y101.448 E51.58916
G1 X173.622 Y101.727 E51.61168
G1 X173.561 Y101.794 E51.6162
G1 X173.32 Y102.062 E51.63418
G1 X173.081 Y102.445 E51.65671
G1 X172.931 Y102.811 E51.67644
G1 X172.771 Y103.239 E51.69924
G1 X172.888 Y102.8 E51.70044
G1 X172.989 Y102.421 E51.70402
G1 X173.101 Y102.004 E51.71335
G1 X173.194 Y101.656 E51.72752
G1 X174.775 Y95.753 E52.03241
G1 X176.041 Y87.518 E52.44808
G1 X176.403 Y79.195 E52.86371
G1 X176.381 Y78.853 E52.88081
G1 X175.856 Y70.881 E53.27939
G1 X174.407 Y62.676 E53.69507
G1 X172.074 Y54.677 E54.11077
G1 X171.942 Y54.361 E54.12786
G1 X168.884 Y46.98 E54.52645
G1 X168.718 Y46.68 E54.54356
G1 X164.873 Y39.677 E54.94214
G1 X160.093 Y32.853 E55.3578
G1 X159.866 Y32.596 E55.37491
G1 X154.618 Y26.616 E55.77185
G1 X153.593 Y25.406 E55.85096
G1 X152.794 Y24.065 E55.92884
G1 X152.231 Y22.621 E56.00616
G1 X151.914 Y21.109 E56.08324
G1 X151.849 Y19.544 E56.16138
G1 X152.041 Y18.012 E56.23841
G1 X152.484 Y16.524 E56.31587
G1 X153.165 Y15.129 E56.39332
G1 X154.067 Y13.867 E56.47071
G1 X155.162 Y12.772 E56.54797
G1 X156.428 Y11.868 E56.62558
G1 X157.825 Y11.185 E56.70316
G1 X159.313 Y10.742 E56.78061
G1 X160.85 Y10.551 E56.85788
G1 X162.405 Y10.616 E56.93553
G1 X163.916 Y10.932 E57.01255
G1 X165.364 Y11.497 E57.09009
G1 X166.701 Y12.293 E57.16772
G1 X167.843 Y13.261 E57.24241
G1 X167.998 Y13.432 E57.25392
G1 X168.081 Y13.572 E57.26204
G1 X168.14 Y13.721 E57.27004
G1 X168.174 Y13.885 E57.2784
G1 X168.181 Y14.06 E57.28713
G1 X168.161 Y14.221 E57.29523
G1 X168.112 Y14.385 E57.30377
G1 X168.039 Y14.534 E57.31204
G1 X167.94 Y14.674 E57.3206
G1 X167.827 Y14.786 E57.32854
G1 X167.684 Y14.888 E57.3373
G1 X167.538 Y14.959 E57.3454
G1 X167.369 Y15.01 E57.35421
G1 X167.214 Y15.029 E57.362
G1 X167.036 Y15.022 E57.37088
G1 X166.879 Y14.989 E57.37889
G1 X166.717 Y14.925 E57.38758
G1 X166.573 Y14.84 E57.39592
G1 X165.517 Y13.946 E57.46495
G1 X164.472 Y13.323 E57.52565
G1 X164.352 Y13.277 E57.53206
G1 X163.345 Y12.884 E57.58599
G1 X163.255 Y12.863 E57.5906
G1 X162.152 Y12.632 E57.64682
G1 X162.06 Y12.627 E57.65142
G1 X160.938 Y12.582 E57.70744
G1 X160.847 Y12.592 E57.71201
G1 X159.727 Y12.732 E57.76832
G1 X158.565 Y13.078 E57.82881
G1 X158.482 Y13.117 E57.83338
G1 X157.469 Y13.613 E57.88965
G1 X156.479 Y14.321 E57.95038
G1 X155.617 Y15.183 E58.01119
G1 X155.564 Y15.258 E58.01578
G1 X154.91 Y16.173 E58.07189
G1 X154.87 Y16.256 E58.07648
G1 X154.377 Y17.263 E58.13242
G1 X154.03 Y18.431 E58.19321
G1 X154.009 Y18.607 E58.20205
G1 X153.879 Y19.638 E58.2539
